public/assets/1.svg

<svg width="183" height="190" viewBox="0 0 183 190" fill="none" xmlns="http://www.w3.org/2000/svg">
<g filter="url(#filter0_d)">
<path d="M24.5352 150.051L41.2859 22.4946L152.92 12.073L152.92 164.224L24.5352 150.051Z" fill="#FFF1F0"/>
<path d="M114.54 57.6687L113.252 95.2915L114.283 122.349H88.7714L89.8021 97.8684V83.8243L77.6907 86.4012L76.1445 85.2416V64.884L110.933 55.0918L114.54 57.6687Z" fill="#3D76CD"/>
</g>
<defs>
<filter id="filter0_d" x="19.5352" y="7.07275" width="138.385" height="162.152" filterUnits="userSpaceOnUse" color-interpolation-filters="sRGB">
<feFlood flood-opacity="0" result="BackgroundImageFix"/>
<feColorMatrix in="SourceAlpha" type="matrix" values="0 0 0 0 0 0 0 0 0 0 0 0 0 0 0 0 0 0 127 0"/>
<feOffset/>
<feGaussianBlur stdDeviation="2.5"/>
<feColorMatrix type="matrix" values="0 0 0 0 0 0 0 0 0 0 0 0 0 0 0 0 0 0 0.25 0"/>
<feBlend mode="normal" in2="BackgroundImageFix" result="effect1_dropShadow"/>
<feBlend mode="normal" in="SourceGraphic" in2="effect1_dropShadow" result="shape"/>
</filter>
</defs>
</svg>

<svg width="183" height="190" fill="none" xmlns="http://www.w3.org/2000/svg"><g filter="url(#filter0_d)"><path d="M24.535 150.051l16.75-127.556L152.92 12.073v152.151L24.535 150.051z" fill="#FFF1F0"/><path d="M114.54 57.669l-1.288 37.623 1.031 27.057H88.771l1.031-24.48V83.823l-12.111 2.577-1.547-1.16V64.885l34.789-9.792 3.607 2.577z" fill="#3D76CD"/></g><defs><filter id="filter0_d" x="19.535" y="7.073" width="138.385" height="162.152" filterUnits="userSpaceOnUse" color-interpolation-filters="sRGB"><feFlood flood-opacity="0" result="BackgroundImageFix"/><feColorMatrix in="SourceAlpha" values="0 0 0 0 0 0 0 0 0 0 0 0 0 0 0 0 0 0 127 0"/><feOffset/><feGaussianBlur stdDeviation="2.5"/><feColorMatrix values="0 0 0 0 0 0 0 0 0 0 0 0 0 0 0 0 0 0 0.25 0"/><feBlend in2="BackgroundImageFix" result="effect1_dropShadow"/><feBlend in="SourceGraphic" in2="effect1_dropShadow" result="shape"/></filter></defs></svg>
